X: 41681
T: Ur-Chnoc Chein Mhic Cainte
R: waltz
M: 3/4
K: Bminor
A2|d3e d2|c4AF|G E3F2|D4DE|F3G A2|c3d e2|d4c2|
A4A2|d3e d2|c4AF|G E3F2|D4DE|F3G AF|G E3A2|D6|D4AG||
F2A2d2|d3d de|f3e d2|d c3A2|d3e f2|e c3e2|d4c2|
d4A2|d2c2A2|G4B2|B2A2G2|F4DE|F3G AF|G E3A2|D6|D4||

